!!!OTL: 403. Bei dir allein nur kann ich gluecklich sein!
!!!ARE: Europa, Mitteleuropa, Deutschland, Hannover; France, Elsass
!!!SCT: B0403
!!!TXL: @@DE
!!!YEM: Copyright 1995, estate of Helmut Schaffrath.
**kern	**text
*ICvox	*
*Ivox	*
*clefG2	*
*M4/4	*
*met(c)	*
*k[b-e-]	*
*B-:	*
!LO:TX:a:t=Mäßig langſam. 	!
{8d	Aus
8d	dei-
8e-	-nen
=1	=1
4.f	blau-
8f	-en
8dd	Au-
8cc	-gen
8b-	ſtrah-
8d	-let
=2	=2
8fL	Lie-
8e-J	.
4e-	-be,
8r}	.
{8e-	aus
8e-	dei-
8e-	-nem
=3	=3
4.cc	Her-
8b-	-ʒen
8a	ſanfte,
8g	.
8f	fro-
8e-	-he
=4	=4
8e-L	Trie-
8dJ	.
4d	-be.
8r}	.
{8b-	Ach,
8b-	wenn
8b-	du
=5	=5
8b-L	wüß-
8gJ	.
4g	-teſt,
8r	.
8b-	wie
8a	ich
8g	dich
=6	=6
8gL	lie-
8fJ	.
4f	-be!
8r}	.
{8b-	Bei
8f	dir
8d	al-
=7	=7
4.c	-lein
8g	kann
8f	ich
8f	nur
8g	glück-
8a	-lich
=8	=8
(4b-	ſein!
4dd)	.
8r}	.
{8b-	Ach,
8b-	wenn
8b-	du
=9	=9
8b-L	wüß-
8gJ	.
4g	-teſt,
8r	.
8b-	wie
8a	ich
8g	dich
=10	=10
8gL	lie-
8fJ	.
4f	-be!
8r}	.
{8b-	Bei
8f	dir
8d	al-
=11	=11
4.c	-lein
8g	kann
8f	ich
8f	nur
8g	glück-
8a	-lich
=12	=12
4b-	ſein!
4r	.
8r}	.
==	==
!!!AGN: Liebes - Lied, Liebes - Lust
!!!GTL: Liebeslieder - Liebeslust
!!!ONB: ESAC (Essen Associative Code) Database: BOEHME
!!!AMT: simple quadruple
!!!AIN: vox
!!!EED: Helmut Schaffrath
!!!EEV: 1.0
!!Aus dem Elſaß, Hannoverſchen 1880 und den Rheinlanden 1882.
!!@@COMMENT:"Mel. mehrfach mündlich vom Rhein und aus Heſſen (Umgebung von Frankfurt a. M. ) Vollſt.
!!Text aus Jmbſen bei Dransfeld (Hannover) 1880. Bloß 4 Strophen wenig abweichend aus dem
!!Elſaß (geſchriebene Liederhefte um 1860-70). Ebenſo abweichend mit derſelben Mel. bei K. Becker,
!!"Rhein. Volksliederborn Nr. 144. "
!!@@END:
!!!URL-scan:https://archive.org/details/BoehmeVtLieder1895/page/n333/mode/2up
!!!ENC: Anna Maria Matuszewska
!!!EEV: 2024/08/07
*-	*-
